X: 1
T: Music In The Glen
R: reel
M: 4/4
L: 1/8
K: Gmaj
|:G2BG EGDc|BDGB AGAB|c2ec BdGB|cABG AGED|
G2BG EGDc|BDGB AGAB|cdef gfge|dcBA G2:|
|GA|(3BAG dG eGdc|BddB cAFA|(3BAG dG edef|gdBG AGED|
(3BAG dG edef|gdBd afdf|(3gfe fd edBd|cABG AGEF:||

